packages/bezier-icons/icons/communication.svg

<svg width="24" height="24" viewBox="0 0 24 24" fill="none" xmlns="http://www.w3.org/2000/svg">
<path fill-rule="evenodd" clip-rule="evenodd" d="M9.78109 16.9624C9.44108 16.3646 9.20079 15.7028 9.08286 14.9994C9.02836 14.6744 9 14.3405 9 14C9 10.714 11.6416 8.0449 14.9171 8.00056C14.9447 8.00019 14.9723 8 15 8C15.691 8 16.3547 8.11681 16.9725 8.33177C19.3172 9.14762 21 11.3773 21 14C21 15.2561 20.614 16.422 19.9542 17.3856L21 20L18.3856 18.9542C17.422 19.614 16.2561 20 15 20C12.7636 20 10.8131 18.7765 9.78109 16.9624ZM7 14C7 9.84526 10.1672 6.43026 14.2189 6.03765C13.1869 4.2235 11.2363 3 9 3C5.68629 3 3 5.68629 3 9C3 10.2561 3.38596 11.422 4.04575 12.3856L3 15L5.61439 13.9542C6.0479 14.2511 6.52234 14.4925 7.02751 14.6682C7.00929 14.4479 7 14.225 7 14ZM9 1C12.4087 1 15.3195 3.1319 16.4717 6.13509C20.187 6.82596 23 10.0845 23 14C23 15.2712 22.7022 16.4764 22.1725 17.5462L22.857 19.2572C23.1541 20.0001 22.9799 20.8485 22.4142 21.4142C21.8485 21.9799 21.0001 22.1541 20.2572 21.857L18.5462 21.1725C17.4764 21.7022 16.2712 22 15 22C11.5912 22 8.68027 19.8679 7.52813 16.8646C6.79739 16.7284 6.10084 16.4929 5.4538 16.1725L3.74278 16.857C2.99994 17.1541 2.15151 16.9799 1.58578 16.4142C1.02006 15.8485 0.84591 15.0001 1.14304 14.2572L1.82745 12.5462C1.29778 11.4764 0.999997 10.2712 0.999997 9C0.999997 4.58172 4.58172 1 9 1ZM13 14C13 14.5523 12.5523 15 12 15C11.4477 15 11 14.5523 11 14C11 13.4477 11.4477 13 12 13C12.5523 13 13 13.4477 13 14ZM15 15C15.5523 15 16 14.5523 16 14C16 13.4477 15.5523 13 15 13C14.4477 13 14 13.4477 14 14C14 14.5523 14.4477 15 15 15ZM18 15C18.5523 15 19 14.5523 19 14C19 13.4477 18.5523 13 18 13C17.4477 13 17 13.4477 17 14C17 14.5523 17.4477 15 18 15Z" fill="#313234"/>
</svg>

<svg xmlns="http://www.w3.org/2000/svg" width="24" height="24" fill="none" viewBox="0 0 24 24"><path fill="#313234" fill-rule="evenodd" d="M9.781 16.962A5.96 5.96 0 0 1 9 14a6 6 0 1 1 10.954 3.386L21 20l-2.614-1.046A5.97 5.97 0 0 1 15 20a6 6 0 0 1-5.219-3.038M7 14a8 8 0 0 1 7.219-7.962 6 6 0 1 0-10.173 6.348L3 15l2.614-1.046c.434.297.908.538 1.414.714A8 8 0 0 1 7 14M9 1a8 8 0 0 1 7.472 5.135 8.003 8.003 0 0 1 5.7 11.411l.685 1.711a2 2 0 0 1-2.6 2.6l-1.71-.684a8.003 8.003 0 0 1-11.018-4.308 8 8 0 0 1-2.075-.693l-1.711.685a2 2 0 0 1-2.6-2.6l.684-1.71A8 8 0 0 1 9 1m4 13a1 1 0 1 1-2 0 1 1 0 0 1 2 0m2 1a1 1 0 1 0 0-2 1 1 0 0 0 0 2m3 0a1 1 0 1 0 0-2 1 1 0 0 0 0 2" clip-rule="evenodd"/></svg>
